X: 39720
T: Tettegouche, The
R: polka
M: 2/4
K: Dmajor
|:AF GE|FD D>F|ED CD|EF G>B|
AF GE|FD D>F|AG EC|1 D2 D>B:|2 D2 D2||
|:d>d cd|cB G>F|EF GA|BA FA|
d>d cd|cB G>F|EF AF|1 ED DA:|2 ED D>B||

